; generated by PrusaSlicer 2.5.0+win64 on 2022-10-07 at 12:45:21 UTC

; 

; external perimeters extrusion width = 0.45mm
; perimeters extrusion width = 0.45mm
; infill extrusion width = 0.45mm
; solid infill extrusion width = 0.45mm
; top infill extrusion width = 0.40mm
; first layer extrusion width = 0.42mm

M73 P0 R49
M73 Q0 S50
M201 X1000 Y1000 Z200 E5000 ; sets maximum accelerations, mm/sec^2
M203 X200 Y200 Z12 E120 ; sets maximum feedrates, mm / sec
M204 P1250 R1250 T1250 ; sets acceleration (P, T) and retract acceleration (R), mm/sec^2
M205 X8.00 Y8.00 Z0.40 E4.50 ; sets the jerk limits, mm/sec
M205 S0 T0 ; sets the minimum extruding and travel feed rate, mm/sec
M107
;TYPE:Custom
M862.3 P "MK3S" ; printer model check
M862.1 P0.4 ; nozzle diameter check
M115 U3.10.1 ; tell printer latest fw version
G90 ; use absolute coordinates
M83 ; extruder relative mode
M104 S240 ; set extruder temp
M140 S85 ; set bed temp
M190 S85 ; wait for bed temp
M109 S240 ; wait for extruder temp
G28 W ; home all without mesh bed level
G80 ; mesh bed leveling
G1 Z0.2 F720
G1 Y-3 F1000 ; go outside print area
G92 E0
G1 X60 E9 F1000 ; intro line
G1 X100 E12.5 F1000 ; intro line
G92 E0
M221 S95

; Don't change E values below. Excessive value can damage the printer.

M907 E538 ; set extruder motor current
G21 ; set units to millimeters
G90 ; use absolute coordinates
M83 ; use relative distances for extrusion
M900 K0.08 ; Filament gcode LA 1.5
M900 K45 ; Filament gcode LA 1.0
M107
;LAYER_CHANGE
;Z:0.2
;HEIGHT:0.2
;BEFORE_LAYER_CHANGE
G92 E0.0
;0.2


G1 E-1 F2100
G1 Z.2 F720
;AFTER_LAYER_CHANGE
;0.2
G1 Z.4
G1 X90.515 Y84.193 F10800
G1 Z.2 F720
G1 E1 F2100
M204 S800
;TYPE:Skirt/Brim
;WIDTH:0.42
G1 F1200
G1 X91.56 Y83.317 E.04278
G1 X92.5 Y83.123 E.03008
G1 X157.5 Y83.123 E2.03803
G1 X158.807 Y83.515 E.04278
G1 X159.683 Y84.56 E.04278
G1 X159.877 Y85.5 E.03008
G1 X159.877 Y124.5 E1.22282
G1 X159.485 Y125.807 E.04278
G1 X158.44 Y126.683 E.04278
G1 X157.5 Y126.877 E.03008
G1 X92.5 Y126.877 E2.03803
G1 X91.193 Y126.485 E.04278
G1 X90.317 Y125.44 E.04278
G1 X90.123 Y124.5 E.03008
G1 X90.123 Y85.5 E1.22282
G1 X90.497 Y84.25 E.0409
M204 S1000
; printing object display_base.stl id:0 copy 0
;WIPE_START
G1 F8640
G1 X91.56 Y83.317 E-.32671
G1 X92.5 Y83.123 E-.22155
G1 X94.24 Y83.123 E-.40174
;WIPE_END
G1 E-.05 F2100
G1 Z.4 F720
G1 X155.951 Y102.666 F10800
G1 Z.2 F720
G1 E1 F2100
M204 S800
;TYPE:Perimeter
;WIDTH:0.419999
G1 F1200
G1 X155.612 Y102.577 E.011
G1 X155.204 Y102.555 E.01283
G1 X154.8 Y102.614 E.0128
G1 X154.416 Y102.753 E.01279
G1 X154.068 Y102.965 E.01279
G1 X153.74 Y103.271 E.01406
G1 X153.46 Y103.71 E.01634
G1 X153.296 Y104.199 E.01617
G1 X153.253 Y104.646 E.01407
G1 X153.302 Y105.05 E.01278
G1 X153.431 Y105.437 E.01279
G1 X153.634 Y105.791 E.01279
G1 X153.903 Y106.098 E.01279
G1 X154.228 Y106.345 E.01279
G1 X154.595 Y106.522 E.01279
G1 X154.99 Y106.624 E.01278
G1 X155.397 Y106.645 E.01279
G1 X155.914 Y106.553 E.01646
G1 X156.382 Y106.324 E.01634
G1 X156.727 Y106.033 E.01416
G1 X156.713 Y123.713 E.55435
G1 X93.287 Y123.713 E1.98867
G1 X93.287 Y105.875 E.5593
;WIDTH:0.420703
G1 X93.288 Y105.184 E.02168
G1 X93.38 Y105.438 E.00847
G1 X93.584 Y105.791 E.01281
;WIDTH:0.419999
G1 X93.853 Y106.098 E.01279
G1 X94.178 Y106.345 E.01278
G1 X94.693 Y106.566 E.01759
G1 X95.203 Y106.643 E.01617
G1 X95.651 Y106.608 E.01408
G1 X96.041 Y106.489 E.01278
G1 X96.399 Y106.295 E.01278
G1 X96.704 Y106.041 E.01244
G1 X96.99 Y105.684 E.01435
G1 X97.202 Y105.206 E.01639
G1 X97.291 Y104.698 E.01617
G1 X97.268 Y104.25 E.01407
G1 X97.158 Y103.857 E.01278
G1 X96.973 Y103.493 E.01279
G1 X96.72 Y103.174 E.01279
G1 X96.408 Y102.911 E.01279
G1 X96.05 Y102.715 E.01278
G1 X95.661 Y102.594 E.01278
G1 X95.255 Y102.552 E.01279
G1 X94.849 Y102.592 E.01279
G1 X94.459 Y102.711 E.01278
G1 X94.101 Y102.905 E.01279
G1 X93.788 Y103.166 E.01279
G1 X93.474 Y103.581 E.01629
G1 X93.287 Y104.032 E.01532
G1 X93.287 Y86.287 E.55638
G1 X156.713 Y86.287 E1.98867
G1 X156.726 Y103.181 E.52971
G1 X156.424 Y102.903 E.0129
M73 P1 R49
M73 Q1 S50
G1 X156.009 Y102.681 E.01473
M204 S1000
;WIPE_START
G1 F8640
G1 X155.612 Y102.577 E-.09486
G1 X155.204 Y102.555 E-.09445
G1 X154.8 Y102.614 E-.09423
G1 X154.416 Y102.753 E-.09417
G1 X154.068 Y102.965 E-.09416
G1 X153.74 Y103.271 E-.10355
G1 X153.46 Y103.71 E-.1203
G1 X153.296 Y104.199 E-.11908
G1 X153.253 Y104.646 E-.10365
G1 X153.269 Y104.782 E-.03157
;WIPE_END
G1 E-.05 F2100
G1 Z.4 F720
G1 X157.213 Y104.52 F10800
G1 Z.2 F720
G1 E1 F2100
M204 S800
;TYPE:External perimeter
;WIDTH:0.429302
G1 F1200
G1 X157.209 Y104.808 E.00926
;WIDTH:0.449911
G1 X157.105 Y105.994 E.04028
;WIDTH:0.419999
G1 X157.092 Y106.5 E.01587
G1 X157.09 Y124.09 E.55153
G1 X92.91 Y124.09 E2.01232
G1 X92.91 Y105.579 E.58039
;WIDTH:0.462782
M73 Q1 S49
G1 X92.931 Y105.446 E.0047
;WIDTH:0.505564
G1 X92.953 Y105.314 E.00518
;WIDTH:0.548347
G1 X92.974 Y105.181 E.00565
;WIDTH:0.591129
G1 X92.996 Y105.048 E.00613
G1 X92.987 Y104.352 E.03171
;WIDTH:0.57374
G1 X92.968 Y104.252 E.00452
;WIDTH:0.535305
G1 X92.948 Y104.151 E.00419
;WIDTH:0.49687
G1 X92.929 Y104.051 E.00386
;WIDTH:0.458435
G1 X92.91 Y103.95 E.00354
;WIDTH:0.419999
G1 X92.91 Y85.91 E.56564
G1 X157.09 Y85.91 E2.01232
G1 X157.095 Y102.773 E.52874
G1 X157.117 Y103.459 E.0215
;WIDTH:0.425394
G1 X157.166 Y104.007 E.01751
;WIDTH:0.429302
G1 X157.208 Y104.46 E.0146
M204 S1000
;WIPE_START
G1 F8640
G1 X157.209 Y104.808 E-.08033
G1 X157.105 Y105.994 E-.27485
G1 X157.092 Y106.5 E-.11686
G1 X157.092 Y108.57 E-.47797
;WIPE_END
G1 E-.05 F2100
G1 Z.4 F720
G1 X155.852 Y103.023 F10800
G1 Z.2 F720
G1 E1 F2100
M204 S800
;WIDTH:0.419999
G1 F1200
G1 X156.168 Y103.18 E.01106
G1 X156.544 Y103.527 E.01605
;WIDTH:0.435813
G1 X156.774 Y103.977 E.0165
G1 X156.828 Y104.529 E.01814
;WIDTH:0.43153
G1 X156.811 Y104.939 E.01324
;WIDTH:0.443186
G1 X156.729 Y105.372 E.01468
G1 X156.482 Y105.742 E.0148
;WIDTH:0.419999
G1 X156.169 Y106.014 E.01301
G1 X155.735 Y106.214 E.01498
G1 X155.406 Y106.268 E.01044
G1 X155.074 Y106.256 E.01044
G1 X154.75 Y106.179 E.01044
G1 X154.448 Y106.038 E.01044
G1 X154.18 Y105.841 E.01044
G1 X153.956 Y105.594 E.01044
G1 X153.786 Y105.308 E.01044
G1 X153.675 Y104.994 E.01044
G1 X153.629 Y104.665 E.01044
G1 X153.645 Y104.36 E.00955
G1 X153.818 Y103.83 E.01748
G1 X154.031 Y103.511 E.01204
G1 X154.272 Y103.281 E.01044
G1 X154.554 Y103.104 E.01044
G1 X154.865 Y102.986 E.01044
G1 X155.194 Y102.932 E.01044
G1 X155.527 Y102.944 E.01045
G1 X155.794 Y103.009 E.0086
M204 S1000
G1 X156.123 Y102.797 F10800
;WIPE_START
G1 F8640
G1 X156.168 Y103.18 E-.09504
G1 X156.544 Y103.527 E-.11816
G1 X156.774 Y103.977 E-.11662
G1 X156.828 Y104.529 E-.12818
G1 X156.811 Y104.939 E-.09462
G1 X156.729 Y105.372 E-.10187
G1 X156.482 Y105.742 E-.10265
G1 X156.169 Y106.014 E-.09578
G1 X155.787 Y106.19 E-.09707
;WIPE_END
G1 E-.05 F2100
G1 Z.4 F720
G1 X95.604 Y106.234 F10800
G1 Z.2 F720
G1 E1 F2100
M204 S800
G1 F1200
G1 X95.259 Y106.27 E.01086
G1 X94.7 Y106.179 E.01777
G1 X94.398 Y106.038 E.01044
G1 X94.13 Y105.841 E.01044
G1 X93.906 Y105.594 E.01044
;WIDTH:0.46331
G1 X93.795 Y105.414 E.0074
;WIDTH:0.50662
G1 X93.684 Y105.233 E.00817
;WIDTH:0.54993
G1 X93.574 Y105.053 E.00893
;WIDTH:0.568987
G1 X93.508 Y104.713 E.01514
;WIDTH:0.581739
G1 X93.521 Y104.312 E.01797
G1 X93.594 Y104.17 E.00716
;WIDTH:0.541304
G1 X93.668 Y104.028 E.00662
;WIDTH:0.500869
G1 X93.741 Y103.886 E.00608
;WIDTH:0.460434
G1 X93.814 Y103.744 E.00555
;WIDTH:0.419999
G1 X94.037 Y103.449 E.01161
G1 X94.289 Y103.232 E.01044
G1 X94.58 Y103.068 E.01044
G1 X94.896 Y102.966 E.01044
G1 X95.227 Y102.928 E.01044
G1 X95.559 Y102.957 E.01044
G1 X95.878 Y103.051 E.01044
G1 X96.173 Y103.206 E.01044
G1 X96.431 Y103.416 E.01044
G1 X96.642 Y103.674 E.01044
G1 X96.798 Y103.968 E.01044
G1 X96.892 Y104.287 E.01044
G1 X96.92 Y104.632 E.01086
G1 X96.83 Y105.14 E.01617
G1 X96.667 Y105.488 E.01204
G1 X96.454 Y105.758 E.01078
G1 X96.211 Y105.968 E.01009
G1 X95.92 Y106.132 E.01044
G1 X95.661 Y106.216 E.00856
M204 S1000
G1 X95.496 Y106.563 F10800
;WIPE_START
G1 F8640
G1 X95.259 Y106.27 E-.09359
G1 X94.7 Y106.179 E-.13087
G1 X94.398 Y106.038 E-.07689
G1 X94.13 Y105.841 E-.07686
G1 X93.906 Y105.594 E-.07688
G1 X93.795 Y105.414 E-.04891
G1 X93.684 Y105.233 E-.04891
G1 X93.574 Y105.053 E-.04891
G1 X93.508 Y104.713 E-.07989
G1 X93.521 Y104.312 E-.09261
G1 X93.594 Y104.17 E-.03688
G1 X93.668 Y104.028 E-.03688
G1 X93.741 Y103.886 E-.03688
G1 X93.814 Y103.744 E-.03688
G1 X93.887 Y103.647 E-.02814
;WIPE_END
G1 E-.05 F2100
G1 Z.4 F720
G1 X156.215 Y106.553 F10800
G1 Z.2 F720
G1 E1 F2100
M204 S800
;TYPE:Solid infill
;WIDTH:0.420826
G1 F1200
G1 X156.433 Y106.772 E.00972
G1 X156.433 Y107.306 E.01679
G1 X155.96 Y106.833 E.02104
G1 X155.505 Y106.913 E.01449
G1 X156.433 Y107.841 E.04122
G1 X156.433 Y108.375 E.01679
G1 X154.731 Y106.673 E.07564
M204 S1000
;WIPE_START
G1 F8640
G1 X156.433 Y108.375 E-.55585
G1 X156.433 Y107.841 E-.12338
G1 X155.604 Y107.011 E-.27077
;WIPE_END
G1 E-.05 F2100
G1 Z.4 F720
G1 X156.6 Y87.164 F10800
G1 Z.2 F720
G1 E1 F2100
M204 S800
G1 F1200
G1 X156.006 Y86.57 E.02642
G1 X155.471 Y86.57 E.01679
G1 X156.431 Y87.529 E.04264
G1 X156.431 Y88.064 E.0168
G1 X154.937 Y86.57 E.06639
G1 X154.402 Y86.57 E.01679
G1 X156.431 Y88.598 E.09015
G1 X156.431 Y89.133 E.0168
G1 X153.868 Y86.57 E.1139
G1 X153.333 Y86.57 E.01679
G1 X156.431 Y89.668 E.13766
G1 X156.431 Y90.202 E.0168
G1 X152.799 Y86.57 E.16142
G1 X152.265 Y86.57 E.01679
G1 X156.432 Y90.737 E.18517
G1 X156.432 Y91.271 E.0168
G1 X151.73 Y86.57 E.20893
G1 X151.196 Y86.57 E.01679
G1 X156.432 Y91.806 E.23269
G1 X156.432 Y92.341 E.0168
G1 X150.661 Y86.57 E.25644
G1 X150.127 Y86.57 E.01679
G1 X156.432 Y92.875 E.2802
G1 X156.432 Y93.41 E.0168
G1 X149.592 Y86.57 E.30396
G1 X149.058 Y86.57 E.01679
G1 X156.432 Y93.944 E.32771
G1 X156.433 Y94.479 E.0168
G1 X148.523 Y86.57 E.35147
G1 X147.989 Y86.57 E.01679
G1 X156.433 Y95.014 E.37523
G1 X156.433 Y95.548 E.0168
G1 X147.455 Y86.57 E.39898
G1 X146.92 Y86.57 E.01679
G1 X156.433 Y96.083 E.42274
G1 X156.433 Y96.617 E.0168
G1 X146.386 Y86.57 E.4465
G1 X145.851 Y86.57 E.01679
G1 X156.433 Y97.152 E.47025
G1 X156.433 Y97.686 E.0168
G1 X145.317 Y86.57 E.49401
G1 X144.782 Y86.57 E.01679
M73 P1 R48
G1 X156.434 Y98.221 E.51777
G1 X156.434 Y98.756 E.0168
G1 X144.248 Y86.57 E.54152
G1 X143.714 Y86.57 E.01679
G1 X156.434 Y99.29 E.56528
G1 X156.434 Y99.825 E.0168
G1 X143.179 Y86.57 E.58904
G1 X142.645 Y86.57 E.01679
G1 X156.434 Y100.359 E.61279
G1 X156.434 Y100.894 E.0168
G1 X142.11 Y86.57 E.63655
G1 X141.576 Y86.57 E.01679
M73 P2 R48
M73 Q2 S49
G1 X156.435 Y101.429 E.66031
G1 X156.435 Y101.963 E.0168
G1 X141.041 Y86.57 E.68406
G1 X140.507 Y86.57 E.01679
G1 X156.435 Y102.498 E.70782
G1 X156.435 Y102.573 E.00235
G1 X156.125 Y102.422 E.01082
G1 X155.967 Y102.368 E.00526
G1 X155.723 Y102.32 E.00781
G1 X139.972 Y86.57 E.69994
G1 X139.438 Y86.57 E.01679
G1 X155.148 Y102.28 E.69812
G1 X154.687 Y102.353 E.01466
G1 X138.904 Y86.57 E.7014
G1 X138.369 Y86.57 E.01679
G1 X154.304 Y102.504 E.70811
G1 X154.169 Y102.563 E.00462
G1 X153.963 Y102.699 E.00774
G1 X137.835 Y86.57 E.71674
G1 X137.3 Y86.57 E.01679
G1 X153.672 Y102.942 E.72754
G1 X153.562 Y103.047 E.00479
G1 X153.429 Y103.233 E.00718
G1 X136.766 Y86.57 E.74048
G1 X136.231 Y86.57 E.01679
G1 X153.225 Y103.564 E.7552
G1 X153.085 Y103.958 E.01314
G1 X135.697 Y86.57 E.77269
G1 X135.163 Y86.57 E.01679
G1 X152.991 Y104.399 E.7923
G1 X152.969 Y104.665 E.00839
G1 X153.011 Y104.953 E.00914
G1 X134.628 Y86.57 E.81692
G1 X134.094 Y86.57 E.01679
G1 X156.433 Y108.909 E.99273
G1 X156.433 Y109.444 E.01679
G1 X133.559 Y86.57 E1.01648
G1 X133.025 Y86.57 E.01679
G1 X156.433 Y109.978 E1.04022
G1 X156.433 Y110.512 E.01679
G1 X132.49 Y86.57 E1.06397
G1 X131.956 Y86.57 E.01679
G1 X156.433 Y111.047 E1.08772
G1 X156.432 Y111.581 E.01679
G1 X131.421 Y86.57 E1.11146
G1 X130.887 Y86.57 E.01679
G1 X156.432 Y112.115 E1.13521
G1 X156.432 Y112.65 E.01679
G1 X130.353 Y86.57 E1.15895
G1 X129.818 Y86.57 E.01679
M73 P3 R48
M73 Q3 S49
G1 X156.432 Y113.184 E1.1827
G1 X156.432 Y113.718 E.01679
M73 Q3 S48
G1 X129.284 Y86.57 E1.20644
G1 X128.749 Y86.57 E.01679
G1 X156.432 Y114.253 E1.23019
G1 X156.432 Y114.787 E.01679
G1 X128.215 Y86.57 E1.25393
G1 X127.68 Y86.57 E.01679
G1 X156.432 Y115.321 E1.27768
G1 X156.432 Y115.856 E.01679
G1 X127.146 Y86.57 E1.30142
G1 X126.611 Y86.57 E.01679
G1 X156.432 Y116.39 E1.32517
G1 X156.431 Y116.924 E.01679
G1 X126.077 Y86.57 E1.34892
G1 X125.543 Y86.57 E.01679
G1 X156.431 Y117.459 E1.37266
G1 X156.431 Y117.993 E.01679
G1 X125.008 Y86.57 E1.39641
G1 X124.474 Y86.57 E.01679
G1 X156.431 Y118.527 E1.42015
G1 X156.431 Y119.062 E.01679
M73 P3 R47
G1 X123.939 Y86.57 E1.4439
G1 X123.405 Y86.57 E.01679
G1 X156.431 Y119.596 E1.46764
G1 X156.431 Y120.13 E.01679
G1 X122.87 Y86.57 E1.49139
G1 X122.336 Y86.57 E.01679
M73 P4 R47
M73 Q4 S48
G1 X156.431 Y120.665 E1.51513
G1 X156.431 Y121.199 E.01679
G1 X121.802 Y86.57 E1.53888
G1 X121.267 Y86.57 E.01679
G1 X156.431 Y121.733 E1.56263
G1 X156.43 Y122.268 E.01679
G1 X120.733 Y86.57 E1.58637
G1 X120.198 Y86.57 E.01679
G1 X156.43 Y122.802 E1.61012
G1 X156.43 Y123.336 E.01679
G1 X119.664 Y86.57 E1.63386
G1 X119.129 Y86.57 E.01679
G1 X155.99 Y123.43 E1.63803
G1 X155.455 Y123.43 E.01679
G1 X118.595 Y86.57 E1.63803
G1 X118.06 Y86.57 E.01679
G1 X154.921 Y123.43 E1.63803
G1 X154.386 Y123.43 E.01679
G1 X117.526 Y86.57 E1.63803
G1 X116.992 Y86.57 E.01679
G1 X153.852 Y123.43 E1.63803
G1 X153.317 Y123.43 E.01679
G1 X116.457 Y86.57 E1.63803
M73 P5 R47
G1 X115.923 Y86.57 E.01679
M73 Q5 S47
G1 X152.783 Y123.43 E1.63803
G1 X152.248 Y123.43 E.01679
G1 X115.388 Y86.57 E1.63803
G1 X114.854 Y86.57 E.01679
G1 X151.714 Y123.43 E1.63803
G1 X151.18 Y123.43 E.01679
G1 X114.319 Y86.57 E1.63803
G1 X113.785 Y86.57 E.01679
G1 X150.645 Y123.43 E1.63803
G1 X150.111 Y123.43 E.01679
G1 X113.25 Y86.57 E1.63803
G1 X112.716 Y86.57 E.01679
G1 X149.576 Y123.43 E1.63803
G1 X149.042 Y123.43 E.01679
G1 X112.182 Y86.57 E1.63803
G1 X111.647 Y86.57 E.01679
G1 X148.507 Y123.43 E1.63803
G1 X147.973 Y123.43 E.01679
M73 P5 R46
G1 X111.113 Y86.57 E1.63803
G1 X110.578 Y86.57 E.01679
G1 X147.439 Y123.43 E1.63803
G1 X146.904 Y123.43 E.01679
M73 P6 R46
M73 Q6 S47
G1 X110.044 Y86.57 E1.63803
G1 X109.509 Y86.57 E.01679
G1 X146.37 Y123.43 E1.63803
G1 X145.835 Y123.43 E.01679
G1 X108.975 Y86.57 E1.63803
G1 X108.441 Y86.57 E.01679
G1 X145.301 Y123.43 E1.63803
G1 X144.766 Y123.43 E.01679
G1 X107.906 Y86.57 E1.63803
G1 X107.372 Y86.57 E.01679
G1 X144.232 Y123.43 E1.63803
G1 X143.697 Y123.43 E.01679
G1 X106.837 Y86.57 E1.63803
G1 X106.303 Y86.57 E.01679
G1 X143.163 Y123.43 E1.63803
G1 X142.629 Y123.43 E.01679
G1 X105.768 Y86.57 E1.63803
G1 X105.234 Y86.57 E.01679
G1 X142.094 Y123.43 E1.63803
G1 X141.56 Y123.43 E.01679
G1 X104.699 Y86.57 E1.63803
G1 X104.165 Y86.57 E.01679
M73 P7 R46
G1 X141.025 Y123.43 E1.63803
G1 X140.491 Y123.43 E.01679
M73 Q7 S46
G1 X103.631 Y86.57 E1.63803
G1 X103.096 Y86.57 E.01679
G1 X139.956 Y123.43 E1.63803
G1 X139.422 Y123.43 E.01679
G1 X102.562 Y86.57 E1.63803
G1 X102.027 Y86.57 E.01679
G1 X138.887 Y123.43 E1.63803
G1 X138.353 Y123.43 E.01679
G1 X101.493 Y86.57 E1.63803
G1 X100.958 Y86.57 E.01679
G1 X137.819 Y123.43 E1.63803
G1 X137.284 Y123.43 E.01679
G1 X100.424 Y86.57 E1.63803
G1 X99.889 Y86.57 E.01679
G1 X136.75 Y123.43 E1.63803
G1 X136.215 Y123.43 E.01679
M73 P7 R45
G1 X99.355 Y86.57 E1.63803
G1 X98.821 Y86.57 E.01679
G1 X135.681 Y123.43 E1.63803
G1 X135.146 Y123.43 E.01679
M73 P8 R45
G1 X98.286 Y86.57 E1.63803
G1 X97.752 Y86.57 E.01679
M73 Q8 S46
G1 X134.612 Y123.43 E1.63803
G1 X134.078 Y123.43 E.01679
G1 X97.217 Y86.57 E1.63803
G1 X96.683 Y86.57 E.01679
G1 X133.543 Y123.43 E1.63803
G1 X133.009 Y123.43 E.01679
G1 X96.148 Y86.57 E1.63803
G1 X95.614 Y86.57 E.01679
G1 X132.474 Y123.43 E1.63803
G1 X131.94 Y123.43 E.01679
G1 X95.08 Y86.57 E1.63803
G1 X94.545 Y86.57 E.01679
G1 X131.405 Y123.43 E1.63803
G1 X130.871 Y123.43 E.01679
G1 X94.011 Y86.57 E1.63803
G1 X93.57 Y86.57 E.01385
G1 X93.57 Y86.664 E.00294
G1 X130.336 Y123.43 E1.63386
G1 X129.802 Y123.43 E.01679
G1 X93.57 Y87.198 E1.61011
